X:327
T: Shehui zhuyi haoshiguang
N: C1826
O: China, Ningxia Guyuan
S: I, 160, 1)]
N: Hui
R: Shange, Huar]
M: 3/8
L: 1/16
K: Bb
c6
cdbgg2 | b2c4 | cdbcb2 | bgg4 |
c2c2c2 | f2gbg2 | c2c4 |
c2cbgb | g2fdc2 | f2f4

